X:34
T:Humours of Dublin. JJo1.034
B:J.Johnson Choice Collection Vol 1 after c1750?
Z:vmp. Anne Wride 2015. www.village-music-project.org.uk
M:6/4
Q:3/4=120
L:1/4
K:Dm
A | d2e (fe)d | ^c2d e2e | f3 e2d | c3 A2 |
| c |F2F (c>d)c | F2F c>dc | d3 A2G | F3 D3 |]
W:The 1st Cu. cast off and cast up again, cross over an go the whole figure which will bring you to the top
W:Then cast off behind the next Cu.
W:Cross Hands backwards & forwards right Hand and left into your own Places
W:The Tune to be Play'd twice.

